assets/images/ico_bookmark_b.svg

<svg width="20" height="24" viewBox="0 0 20 24" fill="none" xmlns="http://www.w3.org/2000/svg">
<path d="M3.8127 1C2.26605 1 1 2.26563 1 3.81236V22.3552C1 23.2525 2.06742 23.8152 2.80844 23.3089L9.54512 18.7054C9.82089 18.5169 10.1786 18.5169 10.4549 18.7054L17.1916 23.3089C17.9326 23.8152 19 23.253 19 22.3552V3.81236C19 2.26563 17.7339 1 16.1873 1H3.8127ZM3.8127 2.12485H16.1873C17.1255 2.12485 17.8747 2.87362 17.8747 3.81236V22.3552C17.8747 22.4126 17.8738 22.4116 17.8265 22.3793L11.0898 17.7758C10.4337 17.3274 9.56585 17.3274 8.91017 17.7758L2.173 22.3793C2.12575 22.4116 2.12479 22.4126 2.12479 22.3552V3.81236C2.12479 2.87362 2.87352 2.12485 3.81221 2.12485H3.8127Z" fill="black" stroke="black"/>
</svg>

<svg xmlns="http://www.w3.org/2000/svg" width="20" height="24" fill="none"><path fill="#000" stroke="#000" d="M3.813 1A2.821 2.821 0 0 0 1 3.812v18.543c0 .898 1.067 1.46 1.808.954l6.737-4.604a.803.803 0 0 1 .91 0l6.737 4.604c.74.506 1.808-.056 1.808-.954V3.812A2.821 2.821 0 0 0 16.187 1H3.813Zm0 1.125h12.374a1.68 1.68 0 0 1 1.688 1.687v18.543c0 .058-.001.057-.049.024l-6.736-4.603a1.934 1.934 0 0 0-2.18 0l-6.737 4.603c-.047.033-.048.034-.048-.024V3.812c0-.938.749-1.687 1.687-1.687Z"/></svg>
